X:83
T:Humors Of the Glen, The
O:
C:Trad.
S:Digital Tradition, humofgln
N:Author: Robert Burns
N:Tune:Humors of the Glen
M:6/8
L:1/8
Q:3/8=80
W:Their groves o' sweet myrtle let Foreign Lands reckon,
W:Where bright-beaming summers exalt the perfume,
W:Far dearer to me yon lone glen o'green breckan
W:Wi' th'burn stealing under the lang, yellow broom:
W:Far dearer to me are yon humble broom bowers,
W:Where the blue-bell and gowan lurk, lowly, unseen;
W:For there, lightly tripping amang the wild flowers,
W:A listening the linnet, oft wanders my Jean.
W:
W:Tho' rich is the breeze in their gay, sunny vallies,
W:And cauld, Caledonia's blast on the wave;
W:Their sweet-scented woodlands that skirt the proud palace,
W:What are they  The haunt o'the tyrant and slave.
W:The slave's spicy forests, and gold-bubbling fountains,
W:The brave Caledonian views wi'disdain;
W:He wanders as free as the winds of his mountains,
W:Save love's willing fetters, the chains o'his Jean.
K:C
E|Ac/-B/A/-^G/ AEE|EcB cEE|Ac/-B/A/-^G/ AEC|DE^G A2E|
Ac/-B/A/-^G/ AEE|EcB cEE|FG/-F/E/-D/ EF/-E/D/-C/|DE^G A2=G|
Gcc c3/2d/d|c/-B/c/-d/e/-f/ gec/c/|f3/2e/d ecA|GEG A2B/-c/|
GEE AFF|GEc GEe|f3/2e/d ecA|DE^G A2z||
